!!!!SEGMENT: pl-kk--kk-i-636--002-005_anonim--in-parasceve-lamentatio-3tia.krn
!!!cenid: 18xx:4539
!!!COM: Anonim
!!!COM-rismID: pe30004985
!!!CDT:
!!!CNT:
!!!OPR: In Parasceve
!!!OTL: Lamentatio 3tia
!!!OMV: 005
!!!PDT:
!!!AGN: Sacred
!!!YEC: Copyright 2022 Narodowy Instytut Fryderyka Chopina (https://polishscores.org)
!!!YEM: License CC-BY-4.0 (https://creativecommons.org/licenses/by/4.0)
!!!SMS-siglum: PL-Kk
!!!SMS-shelfmark: Kk.I.636
!!!SMS-variant:
!!!SMS-altvar:
!!!SMS-shelfwork: 002-005 M
!!!NIFC-rismSourceID: 1001216440
!!!NIFC-rismChildID: 1001216917
!!!NIFC-islandoraID: pl-kk:40786
!!!URL-pdf-islandora: https://repozytorium.nifc.pl/islandora/object/pl-kk%3A40786/datastream/PDF/view
!!!URL-scan: https://polish.musicsources.pl/pl/lokalizacje/galeria/rekopisy/7271/1 @EN{Scan on Polish Music Sources Website} @PL{Skany w portalu Dziedzictwo Muzyki Polskiej w otwartym dostępie}
!!!IIIF:
!!!ONB-nifc: UWAGA: Lamentacje i Responsoria In Parasceve na skanach: S – 8-14, A – 31-37,T – 53-60, B – 78-86. Każda Lamentacja i Responsorium to oddzielne pliki.
!!!AIN: 1 alto 1 bass 1 soprn 1 tenor
!!!key: A-
**kern	**text	**kern	**text	**kern	**text	**kern	**text
*part4	*part4	*part3	*part3	*part2	*part2	*part1	*part1
*staff4	*staff4	*staff3	*staff3	*staff2	*staff2	*staff1	*staff1
*ICvox	*	*ICvox	*	*ICvox	*	*ICvox	*
*Ibass	*	*Itenor	*	*Ialto	*	*Isoprn	*
*I"Basso.	*	*I"Tenore.	*	*I"Alto.	*	*I"Soprano.	*
*I'B	*	*I'T	*	*I'A	*	*I'S	*
*clefF4	*	*clefC4	*	*clefC3	*	*clefC1	*
*k[b-e-a-d-]	*	*k[b-e-a-d-]	*	*k[b-e-a-d-]	*	*k[b-e-a-d-]	*
*A-:	*	*A-:	*	*A-:	*	*A-:	*
*M2/4	*	*M2/4	*	*M2/4	*	*M2/4	*
*all\right	*	*all\right	*	*all\right	*	*all\right	*
=1	=1	=1	=1	=1	=1	=1	=1
*2\right	*	*2\right	*	*2\right	*	*2\right	*
!!LO:TX:t=P:problem:all\right
4AA-/	A-	4e-\	A-	4a-\	A-	4cc\	A-
4E-\	.	4d-\	.	4g\	.	4b-\	.
=2	=2	=2	=2	=2	=2	=2	=2
4A-\	.	4c\	.	2e-\	.	4a-\	.
4E-\	.	4d-\	.	.	.	4b-\	.
=3	=3	=3	=3	=3	=3	=3	=3
2E-\	-leph	2d-\	-leph	2e-\	-leph	2b-\	-leph
=4	=4	=4	=4	=4	=4	=4	=4
2AA-;/	,	2c;\	,	2e-;\	,	2a-;\	,
!LO:LB:g=original	!	!LO:LB:g=original	!	!LO:LB:g=original	!	!LO:LB:g=original	!
=5||	=5||	=5||	=5||	=5||	=5||	=5||	=5||
4A-\	e-	4c\	e-	4a-\	e-	4a-\	E-
(4E-\	-go	[4e-\	-go	(4g\	-go	(4b-\	-go
=6	=6	=6	=6	=6	=6	=6	=6
8AA-/)	,	8e-\]	.	8a-\)	.	8cc\)	.
8A-\	vir	8e-\	vir	8a-\	vir	8cc\	vir
8A-\	vi-	8e-\	vi-	8a-\	vi-	8cc\	vi-
8A-\	-dens	8e-\	-dens	8a-\	-dens	8cc\	-dens
=7	=7	=7	=7	=7	=7	=7	=7
4r	.	4r	.	4r	.	4r	.
8A-\	pau-	8e-\	pau-	8a-\	pau-	8cc\	pau-
8A-\	-per-	8e-\	-per-	8a-\	-per-	8cc\	-per-
=8	=8	=8	=8	=8	=8	=8	=8
4B-\	-ta-	4e-\	-ta-	4g\	-ta-	4dd-\	-ta-
4A-\	-tem	4e-\	-tem	4a-\	-tem	4cc\	-tem
=9	=9	=9	=9	=9	=9	=9	=9
4E-\	me-	4e-\	me-	4g\	me-	4b-\	me-
(4E-\	-am	[4e-\	-am	(4g\	-am	(4b-\	-am
!LO:LB:g=original	!	!	!	!LO:LB:g=original	!	!LO:LB:g=original	!
=10	=10	=10	=10	=10	=10	=10	=10
4A-\)	.	4e-\]	,	4a-\)	,	4cc\)	,
4r	.	4r	.	4r	.	4r	.
!	!	!LO:LB:g=original	!	!	!	!	!
=11	=11	=11	=11	=11	=11	=11	=11
8r	.	8r	.	8r	.	8r	.
8A-\	in	8e-\	in	8a-\	in	8cc\	in
8A-\	vir-	8e-\	vir-	8a-\	vir-	8cc\	vir-
8A-\	-ga	8e-\	-ga	8a-\	-ga	8cc\	-ga
=12	=12	=12	=12	=12	=12	=12	=12
8A-\	in-	8e-\	in-	8a-\	in-	8cc\	in-
8A-\	-di-	8e-\	-di-	8a-\	-di-	8cc\	-di-
8A-\	-gna-	8e-\	-gna-	8a-\	-gna-	8cc\	-gna-
8A-\	-ti-	8e-\	-ti-	8a-\	-ti-	8cc\	-ti-
=13	=13	=13	=13	=13	=13	=13	=13
4E-\	-o-	4e-\	-o-	4g\	-o-	4dd-\	-o-
4E-\	-nis	4d-\	-nis	4g\	-nis	4b-\	-nis
!LO:LB:g=original	!	!	!	!LO:LB:g=original	!	!LO:PB:g=original	!
=14	=14	=14	=14	=14	=14	=14	=14
4A-\	e-	4c\	e-	2e-\	e-	4a-\	e-
4E-\	.	4B-\	.	.	.	4g\	.
=15	=15	=15	=15	=15	=15	=15	=15
4AA-/	.	4c\	.	2e-\	.	4a-\	.
4E-\	.	4d-\	.	.	.	4b-\	.
!	!	!LO:LB:g=original	!	!	!	!	!
=16	=16	=16	=16	=16	=16	=16	=16
2E-\	-jus	2d-\	-jus	2e-\	-jus	2b-\	-jus
=17	=17	=17	=17	=17	=17	=17	=17
2AA-;/	,	2c;\	,	2e-;\	,	2a-;\	,
=18||	=18||	=18||	=18||	=18||	=18||	=18||	=18||
4AA-/	A-	4e-\	A-	4a-\	A-	4cc\	A-
4E-\	.	4d-\	.	4g\	.	4b-\	.
=19	=19	=19	=19	=19	=19	=19	=19
4A-\	.	4c\	.	2e-\	.	4a-\	.
4E-\	.	4d-\	.	.	.	4b-\	.
=20	=20	=20	=20	=20	=20	=20	=20
2E-\	-leph	2d-\	leph	2e-\	-leph	2b-\	-leph
=21	=21	=21	=21	=21	=21	=21	=21
2AA-;/	,	2c;\	,	2e-;\	,	2a-;\	,
!LO:LB:g=original	!	!	!	!LO:PB:g=original	!	!LO:LB:g=original	!
=22||	=22||	=22||	=22||	=22||	=22||	=22||	=22||
4A-\	me	4c\	me	4a-\	Me	4a-\	me
4E-\	mi-	4e-\	mi-	4g\	mi-	4b-\	mi-
!	!	!LO:LB:g=original	!	!	!	!	!
=23	=23	=23	=23	=23	=23	=23	=23
8AA-/	-na-	8e-\	-na-	8a-\	-na-	8cc\	-na-
8A-\	-vit	8e-\	-vit	8a-\	-vit	8cc\	-vit
8A-\	et	8e-\	et	8a-\	et	8cc\	et
8A-\	ad-	8e-\	ad-	8a-\	ad-	8cc\	ad-
=24	=24	=24	=24	=24	=24	=24	=24
4B-\	-du-	4e-\	-du-	4g\	-du-	4dd-\	-du-
8A-\	-xit	8e-\	-xit	8a-\	-xit	8cc\	-xit
8A-\	in	8e-\	in	8a-\	in	8cc\	in
=25	=25	=25	=25	=25	=25	=25	=25
8E-\	te-	8e-\	te-	8g\	te-	8b-\	te-
8E-\	-ne-	8e-\	-ne-	8g\	-ne-	8b-\	-ne-
(4E-\	-bras	4e-\	-bras	(4g\	-bras,	(4b-\	-bras
!LO:LB:g=original	!	!	!	!	!	!LO:LB:g=original	!
=26	=26	=26	=26	=26	=26	=26	=26
4A-\)	,	4e-\	,	4a-\)	.	4cc\)	,
8r	.	8r	.	8r	.	8r	.
8A-\	et	8e-\	et	8a-\	et	8cc\	et
!	!	!LO:LB:g=original	!	!LO:LB:g=original	!	!	!
=27	=27	=27	=27	=27	=27	=27	=27
4E-\	non	4e-\	non	4g\	non	4dd-\	non
4E-\	in	4d-\	in	4g\	in	4b-\	in
=28	=28	=28	=28	=28	=28	=28	=28
4A-\	lu-	4c\	lu-	2e-\	lu-	4a-\	lu-
4E-\	.	4B-\	.	.	.	4g\	.
=29	=29	=29	=29	=29	=29	=29	=29
4AA-/	.	4c\	.	2e-\	.	4a-\	.
4E-\	.	4d-\	.	.	.	4b-\	.
=30	=30	=30	=30	=30	=30	=30	=30
2E-\	-cem	2d-\	cem	2e-\	-cem	2b-\	cem
=31	=31	=31	=31	=31	=31	=31	=31
2AA-;/	,	2c;\	,	2e-;\	,	2a-;\	,
!LO:LB:g=original	!	!	!	!	!	!LO:LB:g=original	!
=32||	=32||	=32||	=32||	=32||	=32||	=32||	=32||
4AA-/	A-	4e-\	A-	4a-\	A-	4cc\	A-
4E-\	.	4d-\	.	4g\	.	4b-\	.
=33	=33	=33	=33	=33	=33	=33	=33
4A-\	.	4c\	.	2e-\	.	4a-\	.
4E-\	.	4d-\	.	.	.	4b-\	.
!	!	!LO:LB:g=original	!	!	!	!	!
=34	=34	=34	=34	=34	=34	=34	=34
2E-\	-leph	2d-\	-leph	2e-\	-leph	2b-\	-leph
=35	=35	=35	=35	=35	=35	=35	=35
2AA-;/	,	2c;\	,	2e-;\	,	2a-;\	,
!	!	!	!	!LO:LB:g=original	!	!	!
=36||	=36||	=36||	=36||	=36||	=36||	=36||	=36||
4A-\	tan-	4c\	tan-	4a-\	tan-	4a-\	tan-
(4E-\	.	[4e-\	.	(4g\	.	(4b-\	.
=37	=37	=37	=37	=37	=37	=37	=37
8AA-/)	.	8e-\]	.	8a-\)	.	8cc\)	.
8A-\	-tum,	8e-\	-tum	8a-\	-tum	8cc\	-tum
4r	.	4r	.	4r	.	4r	.
!LO:LB:g=original	!	!	!	!	!	!LO:LB:g=original	!
=38	=38	=38	=38	=38	=38	=38	=38
4B-\	in	4e-\	in	4g\	in	4dd-\	in
4A-\	me	4e-\	me	4a-\	me	4cc\	me
=39	=39	=39	=39	=39	=39	=39	=39
4E-\	ver-	4e-\	ver-	4g\	ver-	4b-\	ver-
(4E-\	-tit	[4e-\	-tit	4g\	-tit	(4b-\	-tit
=40	=40	=40	=40	=40	=40	=40	=40
4A-\)	,	4e-\]	,	4a-\	,	4cc\)	,
4r	.	4r	.	4r	.	4r	.
!	!	!LO:LB:g=original	!	!	!	!	!
=41	=41	=41	=41	=41	=41	=41	=41
4r	.	4r	.	4r	.	4r	.
8A-\	et	8e-\	et	8a-\	et	8cc\	et
8A-\	con-	8e-\	con-	8a-\	con-	8cc\	con-
!	!	!	!	!LO:LB:g=original	!	!	!
=42	=42	=42	=42	=42	=42	=42	=42
8A-\	-ver-	8e-\	-ver-	8a-\	-ver-	8cc\	-ver-
8A-\	-tit	8e-\	-tit	8a-\	-tit	8cc\	-tit,
4r	.	4r	.	4r	.	4r	.
!LO:LB:g=original	!	!	!	!	!	!LO:LB:g=original	!
=43	=43	=43	=43	=43	=43	=43	=43
8A-\	ma-	8e-\	ma-	8a-\	ma-	8cc\	ma-
8A-\	-num	8e-\	-num	8a-\	-num	8cc\	-num
8A-\	su-	8e-\	su-	8a-\	su-	8cc\	su-
8A-\	-am	8e-\	-am,	8a-\	-am	8cc\	-am
=44	=44	=44	=44	=44	=44	=44	=44
4E-\	to-	4e-\	to-	4g\	to-	4dd-\	to-
4E-\	-ta	4d-\	-ta	4g\	-ta	4b-\	-ta
=45	=45	=45	=45	=45	=45	=45	=45
4A-\	di-	4c\	di-	2e-\	di-	4a-\	di-
4E-\	.	4B-\	.	.	.	4g\	.
!	!	!LO:LB:g=original	!	!	!	!	!
=46	=46	=46	=46	=46	=46	=46	=46
4AA-/	.	4c\	.	2e-\	.	4a-\	.
4E-\	.	4d-\	.	.	.	4b-\	.
=47	=47	=47	=47	=47	=47	=47	=47
2E-\	-e	2d-\	-e	2e-\	-e	2b-\	-e
=48	=48	=48	=48	=48	=48	=48	=48
2AA-;/	,	2c;\	,	2e-;\	,	2a-;\	,
!LO:LB:g=original	!	!	!	!LO:LB:g=original	!	!LO:LB:g=original	!
=49||	=49||	=49||	=49||	=49||	=49||	=49||	=49||
4AA-/	Beth	4e-\	Beth	4a-\	Beth	4cc\	Beth
4E-\	.	4d-\	.	4g\	.	4b-\	.
=50	=50	=50	=50	=50	=50	=50	=50
4A-\	.	4c\	.	4e-\	.	4a-\	.
4E-\	.	4d-\	.	4e-\	.	4b-\	.
=51	=51	=51	=51	=51	=51	=51	=51
2AA-;/	,	2c;\	,	2e-;\	,	2a-;\	,
=52||	=52||	=52||	=52||	=52||	=52||	=52||	=52||
4A-\	ve-	4c\	ve-	4a-\	ve-	4a-\	ve-
(4E-\	-tu-	[4e-\	-tu-	(4g\	-tu-	(4b-\	-tu-
!	!	!LO:LB:g=original	!	!	!	!	!
=53	=53	=53	=53	=53	=53	=53	=53
8AA-/)	.	8e-\]	.	8a-\)	.	8cc\)	.
8A-\	-stam	8e-\	-stam	8a-\	-stam	8cc\	-stam
8A-\	fe-	8e-\	fe-	8a-\	fe-	8cc\	fe-
8A-\	-cit	8e-\	-cit	8a-\	-cit	8cc\	-cit
!LO:LB:g=original	!	!	!	!LO:LB:g=original	!	!LO:LB:g=original	!
=54	=54	=54	=54	=54	=54	=54	=54
8A-\	pel-	8e-\	pel-	8a-\	pel-	8cc\	pel-
8A-\	-lem	8e-\	-lem	8a-\	-lem	8cc\	-lem
8A-\	me-	8e-\	me-	8a-\	me-	8cc\	me-
8A-\	-am	8e-\	-am	8a-\	-am	8cc\	-am
=55	=55	=55	=55	=55	=55	=55	=55
4r	.	4r	.	4r	.	4r	.
4A-\	et	4e-\	et	4a-\	et	4cc\	et
=56	=56	=56	=56	=56	=56	=56	=56
4B-\	car-	4e-\	car-	4g\	car-	4dd-\	car-
4A-\	-nem	4e-\	-nem	4a-\	-nem	4cc\	-nem
!	!	!LO:LB:g=original	!	!	!	!	!
=57	=57	=57	=57	=57	=57	=57	=57
4E-\	me-	4e-\	me-	4g\	me-	4b-\	me-
(4E-\	-am	[4e-\	-am	4g\	-am	(4b-\	-am
=58	=58	=58	=58	=58	=58	=58	=58
4A-\)	,	4e-\]	,	4a-\	,	4cc\)	,
4r	.	4r	.	4r	.	4r	.
!LO:LB:g=original	!	!	!	!LO:LB:g=original	!	!LO:LB:g=original	!
=59	=59	=59	=59	=59	=59	=59	=59
8r	.	8r	.	8r	.	8r	.
8A-\	con-	8e-\	con-	8a-\	con-	8cc\	con-
8A-\	-tri-	8e-\	-tri-	8a-\	-tri-	8cc\	-tri-
8A-\	-vit	8e-\	-vit	8a-\	-vit	8cc\	-vit
=60	=60	=60	=60	=60	=60	=60	=60
4E-\	os-	4e-\	os-	4g\	os-	4dd-\	os-
4E-\	-sa	4d-\	-sa	4g\	-sa	4b-\	-sa
=61	=61	=61	=61	=61	=61	=61	=61
4A-\	me-	4c\	me-	2e-\	me-	4a-\	me-
4E-\	.	4B-\	.	.	.	4g\	.
!	!	!LO:LB:g=original	!	!	!	!	!
=62	=62	=62	=62	=62	=62	=62	=62
4AA-/	.	4c\	.	2e-\	.	4a-\	.
4E-\	.	4d-\	.	.	.	4b-\	.
=63	=63	=63	=63	=63	=63	=63	=63
2E-\	-a	2d-\	-a	2e-\	-a	2b-\	-a
=64	=64	=64	=64	=64	=64	=64	=64
2AA-;/	,	2c;\	,	2e-;\	,	2a-;\	,
!LO:PB:g=original	!	!	!	!	!	!LO:LB:g=original	!
=65||	=65||	=65||	=65||	=65||	=65||	=65||	=65||
4AA-/	Beth	4e-\	Beth	4a-\	Beth	4cc\	Beth
4E-\	.	4d-\	.	4g\	.	4b-\	.
!	!	!	!	!LO:LB:g=original	!	!	!
=66	=66	=66	=66	=66	=66	=66	=66
4A-\	.	4c\	.	2e-\	.	4a-\	.
4E-\	.	4d-\	.	.	.	4b-\	.
=67	=67	=67	=67	=67	=67	=67	=67
2AA-;/	,	2c;\	,	2e-;\	,	2a-;\	,
!	!	!LO:TX:b:rj:t=V.S.	!	!	!	!	!
!	!	!LO:PB:g=original	!	!	!	!	!
=68||	=68||	=68||	=68||	=68||	=68||	=68||	=68||
4A-\	e-	4c\	e-	4a-\	e-	4a-\	e-
(4E-\	-di-	[4e-\	-di-	(4g\	-di-	(4b-\	-di-
=69	=69	=69	=69	=69	=69	=69	=69
8AA-/)	.	8e-\]	.	8a-\)	.	8cc\)	.
8A-\	-fi-	8e-\	-fi-	8a-\	-fi-	8cc\	-fi-
8A-\	-ca-	8e-\	-ca-	8a-\	-ca-	8cc\	-ca-
8A-\	-vit	8e-\	-vit	8a-\	-vit	8cc\	-vit
!LO:LB:g=original	!	!	!	!	!	!	!
=70	=70	=70	=70	=70	=70	=70	=70
4r	.	4r	.	4r	.	4r	.
4A-\	in	4e-\	in	4a-\	in	4cc\	in
!	!	!	!	!	!	!LO:LB:g=original	!
=71	=71	=71	=71	=71	=71	=71	=71
4B-\	gy-	4e-\	gy-	4g\	gy-	4dd-\	gy-
4A-\	-ro	4e-\	-ro	4a-\	-ro	4cc\	-ro
!	!	!	!	!LO:LB:g=original	!	!	!
=72	=72	=72	=72	=72	=72	=72	=72
4E-\	me-	4e-\	me-	4g\	me-	4b-\	me-
(4E-\	-o	4e-\	-o	4g\	-o	(4b-\	-o
=73	=73	=73	=73	=73	=73	=73	=73
4A-\)	,	4e-\	,	4a-\	,	4cc\)	,
4r	.	4r	.	4r	.	4r	.
!	!	!LO:LB:g=original	!	!	!	!	!
=74	=74	=74	=74	=74	=74	=74	=74
8r	.	8r	.	8r	.	8r	.
8A-\	et	8e-\	et	8a-\	et	8cc\	et
8A-\	cir-	8e-\	cir-	8a-\	cir-	8cc\	cir-
8A-\	-cum-	8e-\	-cum-	8a-\	-cum-	8cc\	-cum-
!LO:LB:g=original	!	!	!	!	!	!	!
=75	=75	=75	=75	=75	=75	=75	=75
8A-\	-de-	8e-\	-de-	8a-\	-de-	8cc\	-de-
8A-\	-dit	8e-\	-dit	8a-\	-dit	8cc\	-dit
8r	.	8r	.	8r	.	8r	.
8A-\	me	8e-\	me	8a-\	me	8cc\	me
!	!	!	!	!	!	!LO:LB:g=original	!
=76	=76	=76	=76	=76	=76	=76	=76
8A-\	fel-	8e-\	fel-	8a-\	fel-	8cc\	fel-
8A-\	-le	8e-\	-le,	8a-\	-le,	8cc\	-le
4r	.	4r	.	4r	.	4r	.
!	!	!	!	!LO:LB:g=original	!	!	!
=77	=77	=77	=77	=77	=77	=77	=77
4E-\	et	4e-\	et	4g\	et	4dd-\	et
4E-\	la-	4d-\	la-	4g\	la-	4b-\	la-
=78	=78	=78	=78	=78	=78	=78	=78
4A-\	-bo-	4c\	-bo-	2e-\	-bo-	4a-\	-bo-
4E-\	.	4B-\	.	.	.	4g\	.
!	!	!LO:LB:g=original	!	!	!	!	!
=79	=79	=79	=79	=79	=79	=79	=79
4AA-/	.	4c\	.	2e-\	.	4a-\	.
4E-\	.	4d-\	.	.	.	4b-\	.
!LO:LB:g=original	!	!	!	!	!	!	!
=80	=80	=80	=80	=80	=80	=80	=80
2E-\	-re	2d-\	-re	2e-\	re	2b-\	-re
=81	=81	=81	=81	=81	=81	=81	=81
2AA-;/	,	2c;\	,	2e-;\	,	2a-;\	,
!	!	!	!	!	!	!LO:TX:b:rj:t=V.S.	!
!	!	!	!	!	!	!LO:PB:g=original	!
=82||	=82||	=82||	=82||	=82||	=82||	=82||	=82||
4AA-/	Beth	4e-\	Beth	4a-\	Beth	4cc\	Beth
4E-\	.	4d-\	.	4g\	.	4b-\	.
=83	=83	=83	=83	=83	=83	=83	=83
4A-\	.	4c\	.	4e-\	.	4a-\	.
4E-\	.	4d-\	.	4e-\	.	4b-\	.
=84	=84	=84	=84	=84	=84	=84	=84
2AA-;/	,	2c;\	,	2e-;\	,	2a-;\	,
!	!	!	!	!LO:LB:g=original	!	!	!
=85||	=85||	=85||	=85||	=85||	=85||	=85||	=85||
4A-\	in-	4c\	in-	4a-\	in-	4a-\	in-
(4E-\	-te-	[4e-\	-te-	(4g\	-te-	(4b-\	-te-
!	!	!LO:LB:g=original	!	!	!	!	!
=86	=86	=86	=86	=86	=86	=86	=86
8AA-/)	.	8e-\]	.	8a-\)	.	8cc\)	.
8A-\	-ne-	8e-\	-ne-	8a-\	-ne-	8cc\	-ne-
8A-\	-bro-	8e-\	-bro-	8a-\	-bro-	8cc\	-bro-
8A-\	-sis	8e-\	-sis	8a-\	-sis	8cc\	-sis
!LO:LB:g=original	!	!	!	!	!	!	!
=87	=87	=87	=87	=87	=87	=87	=87
4B-\	col-	4e-\	col-	4g\	col-	4dd-\	col-
4A-\	-lo-	4e-\	-lo-	4a-\	-lo-	4cc\	-lo-
!	!	!	!	!	!	!LO:LB:g=original	!
=88	=88	=88	=88	=88	=88	=88	=88
8A-\	-ca-	8e-\	-ca-	8a-\	-ca-	8cc\	-ca-
8E-\	-vit	8e-\	-vit	8g\	-vit	8b-\	-vit
(4E-\	me	[4e-\	me	4g\	me	(4b-\	me
=89	=89	=89	=89	=89	=89	=89	=89
4A-\)	,	4e-\]	,	4a-\	,	4cc\)	,
4r	.	4r	.	4r	.	4r	.
!	!	!	!	!LO:LB:g=original	!	!	!
=90	=90	=90	=90	=90	=90	=90	=90
4r	.	4r	.	4r	.	4r	.
8A-\	qua-	8e-\	qua-	8a-\	qua-	8cc\	qua-
8A-\	-si	8e-\	-si	8a-\	-si	8cc\	-si
!	!	!LO:LB:g=original	!	!	!	!	!
=91	=91	=91	=91	=91	=91	=91	=91
8A-\	mor-	8e-\	mor-	8a-\	mor-	8cc\	mor-
8A-\	-tu-	8e-\	-tu-	8a-\	-tu-	8cc\	-tu-
4A-\	-os	4e-\	-os	4a-\	-os	4cc\	-os
!LO:LB:g=original	!	!	!	!	!	!	!
=92	=92	=92	=92	=92	=92	=92	=92
4E-\	sem-	4e-\	sem-	4g\	.	(4dd-\	sem-
4E-\	-pi-	4d-\	-pi-	8g\	sem-	8b-\)	.
.	.	.	.	8g\	-pi-	8b-\	-pi-
!	!	!	!	!	!	!LO:LB:g=original	!
=93	=93	=93	=93	=93	=93	=93	=93
4A-\	-ter-	4c\	-ter-	2e-\	-ter-	4a-\	-ter-
4E-\	.	4B-\	.	.	.	4g\	.
=94	=94	=94	=94	=94	=94	=94	=94
4AA-/	.	4c\	.	2e-\	.	4a-\	.
4E-\	.	4d-\	.	.	.	4b-\	.
=95	=95	=95	=95	=95	=95	=95	=95
2E-\	nos	2d-\	-nos	2e-\	-nos	2b-\	-nos
=96	=96	=96	=96	=96	=96	=96	=96
2AA-;/	,	2c;\	,	2e-;\	,	2a-;\	,
!	!	!	!	!LO:TX:b:rj:t=V.S.	!	!	!
!	!	!LO:LB:g=original	!	!LO:PB:g=original	!	!	!
=97||	=97||	=97||	=97||	=97||	=97||	=97||	=97||
4AA-/	Ghi-	4e-\	Ghi-	4a-\	Ghi-	4cc\	Ghi-
4E-\	.	4d-\	.	4g\	.	4b-\	.
=98	=98	=98	=98	=98	=98	=98	=98
4A-\	.	4c\	.	2e-\	.	4a-\	.
4E-\	.	4d-\	.	.	.	4b-\	.
!LO:LB:g=original	!	!	!	!	!	!	!
=99	=99	=99	=99	=99	=99	=99	=99
2E-\	mel	2d-\	-mel	2e-\	-mel	2b-\	-mel
=100	=100	=100	=100	=100	=100	=100	=100
2AA-;/	,	2c;\	,	2e-;\	,	2a-;\	,
!	!	!	!	!	!	!LO:LB:g=original	!
=101||	=101||	=101||	=101||	=101||	=101||	=101||	=101||
4A-\	cir-	4c\	cir-	4a-\	cir-	4a-\	cir-
(4E-\	-cum-	[4e-\	-cum-	(4g\	-cum-	(4b-\	-cum-
=102	=102	=102	=102	=102	=102	=102	=102
8AA-/)	.	8e-\]	.	8a-\)	.	8cc\)	.
8A-\	-e-	8e-\	-e-	8a-\	-e-	8cc\	e-
8A-\	-di-	8e-\	-di-	8a-\	-di-	8cc\	-di-
8A-\	-fi-	8e-\	-fi-	8a-\	-fi-	8cc\	-fi-
!	!	!LO:LB:g=original	!	!LO:LB:g=original	!	!	!
=103	=103	=103	=103	=103	=103	=103	=103
8A-\	-ca-	8e-\	-ca-	8a-\	-ca-	8cc\	-ca-
8A-\	-vit	8e-\	-vit	8a-\	-vit	8cc\	-vit
8r	.	8r	.	8r	.	8r	.
8A-\	ad-	8e-\	ad-	8a-\	ad-	8cc\	ad-
!LO:LB:g=original	!	!	!	!	!	!	!
=104	=104	=104	=104	=104	=104	=104	=104
8A-\	-ver-	8e-\	-ver-	8a-\	-ver-	8cc\	-ver-
8A-\	-sum	8e-\	-sum	8a-\	-sum	8cc\	-sum
8A-\	me,	8e-\	me,	8a-\	me,	8cc\	me
8A-\	ut	8e-\	ut	8a-\	ut	8cc\	ut
!	!	!	!	!	!	!LO:LB:g=original	!
=105	=105	=105	=105	=105	=105	=105	=105
4B-\	non	4e-\	non	4g\	non	4dd-\	non
4A-\	e-	4e-\	e-	4a-\	e-	4cc\	e-
=106	=106	=106	=106	=106	=106	=106	=106
8E-\	-gre-	8e-\	-gre-	8g\	-gre-	8b-\	-gre-
8E-\	-di-	8e-\	-di-	8g\	-di-	8b-\	-di-
(4E-\	-ar	[4e-\	-ar	(4g\	-ar	(4b-\	-ar
!	!	!	!	!LO:LB:g=original	!	!	!
=107	=107	=107	=107	=107	=107	=107	=107
4A-\)	,	4e-\]	,	4a-\)	,	4cc\)	,
4r	.	4r	.	4r	.	4r	.
!LO:LB:g=original	!	!LO:LB:g=original	!	!	!	!	!
=108	=108	=108	=108	=108	=108	=108	=108
8A-\	ag-	8e-\	ag-	8a-\	ag-	8cc\	ag-
8A-\	-gra-	8e-\	-gra-	8a-\	-gra-	8cc\	-gra-
8A-\	-va-	8e-\	-va-	8a-\	-va-	8cc\	-va-
8A-\	-vit	8e-\	-vit	8a-\	-vit	8cc\	-vit
=109	=109	=109	=109	=109	=109	=109	=109
8.E-\	com-	8.e-\	com-	8.g\	com-	8.dd-\	com-
16E-\	-pe-	16d-\	-pe-	16g\	-pe-	16b-\	-pe-
4E-\	-dem	4d-\	-dem	4g\	-dem	4b-\	-dem
!	!	!	!	!	!	!LO:LB:g=original	!
=110	=110	=110	=110	=110	=110	=110	=110
4A-\	me-	4c\	me-	2e-\	me-	4a-\	me-
4E-\	.	4B-\	.	.	.	4g\	.
=111	=111	=111	=111	=111	=111	=111	=111
4AA-/	.	4c\	.	2e-\	.	4a-\	.
4E-\	.	4d-\	.	.	.	4b-\	.
=112	=112	=112	=112	=112	=112	=112	=112
2E-\	am	2d-\	-am	2e-\	-am	2b-\	-am
=113	=113	=113	=113	=113	=113	=113	=113
2AA-;/	,	2c;\	,	2e-;\	,	2a-;\	,
!LO:LB:g=original	!	!LO:LB:g=original	!	!LO:LB:g=original	!	!	!
=114||	=114||	=114||	=114||	=114||	=114||	=114||	=114||
4AA-/	Ghi-	4e-\	Ghi-	4a-\	Ghi-	4cc\	Ghi-
4E-\	.	4d-\	.	4g\	.	4b-\	.
=115	=115	=115	=115	=115	=115	=115	=115
4A-\	.	4c\	.	2e-\	.	4a-\	.
4E-\	.	4d-\	.	.	.	4b-\	.
=116	=116	=116	=116	=116	=116	=116	=116
2E-\	mel	2d-\	-mel	2e-\	mel	2b-\	mel
=117	=117	=117	=117	=117	=117	=117	=117
2AA-;/	,	2c;\	,	2e-;\	,	2a-;\	,
!	!	!	!	!	!	!LO:LB:g=original	!
=118||	=118||	=118||	=118||	=118||	=118||	=118||	=118||
4A-\	sed	4c\	sed	4a-\	sed	4a-\	sed
(4E-\	et	4e-\	et	4g\	et	(4b-\	el
=119	=119	=119	=119	=119	=119	=119	=119
8AA-/)	.	4r	.	8a-\	,	8cc\)	.
8r	.	.	.	8r	.	8r	.
8A-\	cum	8e-\	cum	8a-\	con	8cc\	cum
8A-\	cla-	8e-\	cla-	8a-\	cla-	8cc\	cla-
!LO:LB:g=original	!	!	!	!	!	!	!
=120	=120	=120	=120	=120	=120	=120	=120
8A-\	-ma-	8e-\	-ma-	8a-\	-ma-	8cc\	-ma-
8A-\	-ve-	8e-\	-ve-	8a-\	-ve-	8cc\	-ve-
4A-\	-ro	4e-\	-ro	4a-\	-ro	4cc\	-ro
!	!	!LO:LB:g=original	!	!LO:LB:g=original	!	!	!
=121	=121	=121	=121	=121	=121	=121	=121
4B-\	et	4e-\	et	4g\	et	4dd-\	et
4A-\	ro-	4e-\	ro-	4a-\	ro-	4cc\	ro-
=122	=122	=122	=122	=122	=122	=122	=122
8E-\	-ga-	8e-\	-ga-	8g\	-ga-	8b-\	-ga-
8E-\	-ve-	8e-\	-ve-	8g\	-ve-	8b-\	-ve-
(4E-\	-ro	[4e-\	-ro	4g\	-ro	(4b-\	-ro
!	!	!	!	!	!	!LO:LB:g=original	!
=123	=123	=123	=123	=123	=123	=123	=123
4A-\)	,	4e-\]	,	4a-\	,	4cc\)	,
8r	.	8r	.	8r	.	8r	.
8A-\	ex-	8e-\	ex-	8a-\	ex-	8cc\	ex-
=124	=124	=124	=124	=124	=124	=124	=124
8A-\	-clu-	8e-\	-clu-	8a-\	-clu-	8cc\	-clu-
8A-\	-sit	8e-\	-sit	8a-\	-sit,	8cc\	-sit
8r	.	8r	.	8r	.	8r	.
8A-\	o-	8e-\	o-	8a-\	o-	8cc\	o-
!LO:LB:g=original	!	!	!	!	!	!	!
=125	=125	=125	=125	=125	=125	=125	=125
4A-\	-ra-	4e-\	-ra-	4a-\	-ra-	4cc\	-ra-
4A-\	-ti-	4e-\	-ti-	4a-\	-ti-	4cc\	-ti-
!	!	!LO:LB:g=original	!	!LO:LB:g=original	!	!	!
=126	=126	=126	=126	=126	=126	=126	=126
4E-\	-o-	4e-\	-o-	4g\	-o-	4dd-\	-o-
4E-\	-nem	4d-\	-nem	4g\	-nem	4b-\	-nem
=127	=127	=127	=127	=127	=127	=127	=127
4A-\	me-	4c\	me-	2e-\	me-	4a-\	me-
4E-\	.	4B-\	.	.	.	4g\	.
!	!	!	!	!	!	!LO:LB:g=original	!
=128	=128	=128	=128	=128	=128	=128	=128
4AA-/	.	4c\	.	2e-\	.	4a-\	.
4E-\	.	4d-\	.	.	.	4b-\	.
=129	=129	=129	=129	=129	=129	=129	=129
2E-\	-am	2d-\	-am	2e-\	-am	2b-\	am
=130	=130	=130	=130	=130	=130	=130	=130
2AA-;/	,	2c;\	,	2e-;\	,	2a-;\	,
!LO:TX:b:rj:t=V.S.	!	!	!	!	!	!	!
!LO:PB:g=original	!	!	!	!	!	!	!
=131||	=131||	=131||	=131||	=131||	=131||	=131||	=131||
4AA-/	Ghi-	4e-\	Ghi-	4a-\	Ghi-	4cc\	Ghi-
4E-\	.	4d-\	.	4g\	.	4b-\	.
=132	=132	=132	=132	=132	=132	=132	=132
4A-\	.	4c\	.	2e-\	.	4a-\	.
4E-\	.	4d-\	.	.	.	4b-\	.
!	!	!LO:LB:g=original	!	!	!	!	!
=133	=133	=133	=133	=133	=133	=133	=133
2E-\	-mel	2d-\	-mel	2e-\	-mel	2b-\	-mel
=134	=134	=134	=134	=134	=134	=134	=134
2AA-;/	,	2c;\	,	2e-;\	,	2a-;\	,
!	!	!	!	!LO:LB:g=original	!	!LO:LB:g=original	!
=135||	=135||	=135||	=135||	=135||	=135||	=135||	=135||
4A-\	con-	4c\	con-	4a-\	con-	4a-\	con-
(4E-\	-clu-	[4e-\	-clu-	(4g\	-clu-	(4b-\	-clu-
=136	=136	=136	=136	=136	=136	=136	=136
8AA-/)	.	8e-\]	.	8a-\)	.	8cc\)	.
8A-\	-sit	8e-\	-sit	8a-\	-sit	8cc\	-sit
8A-\	vi-	8e-\	vi-	8a-\	vi-	8cc\	vi-
8A-\	-as	8e-\	-as	8a-\	-as	8cc\	-as
!LO:LB:g=original	!	!	!	!	!	!	!
=137	=137	=137	=137	=137	=137	=137	=137
8A-\	me-	8e-\	me-	8a-\	me-	8cc\	me-
8A-\	-as	8e-\	-as,	8a-\	-as,	8cc\	-as,
8r	.	8r	.	8r	.	8r	.
8A-\	la-	8e-\	la-	8a-\	la-	8cc\	la-
!	!	!LO:PB:g=original	!	!	!	!	!
=138	=138	=138	=138	=138	=138	=138	=138
8.B-\	-pi-	8.e-\	-pi-	8.g\	-pi-	8.dd-\	-pi-
16A-\	-di-	16e-\	-di-	16a-\	-di-	16cc\	-di-
4A-\	-bus	4e-\	-bus	4a-\	-bus	4cc\	-bus
!	!	!	!	!LO:LB:g=original	!	!LO:LB:g=original	!
=139	=139	=139	=139	=139	=139	=139	=139
4E-\	qua-	4e-\	qua-	4g\	qua-	4b-\	qua-
(4E-\	-dris	[4e-\	-dris	(4g\	-dris	(4b-\	-dris
=140	=140	=140	=140	=140	=140	=140	=140
4A-\)	,	4e-\]	,	4a-\)	,	4cc\)	,
4r	.	4r	.	4r	.	4r	.
=141	=141	=141	=141	=141	=141	=141	=141
4r	.	4r	.	4r	.	4r	.
8A-\	se-	8e-\	se-	8a-\	se-	8cc\	se-
16A-\	-mi-	16e-\	-mi-	16a-\	-mi-	16cc\	-mi-
16A-\	-tas	16e-\	-tas	16a-\	-tas	16cc\	-tas
!LO:LB:g=original	!	!	!	!	!	!	!
=142	=142	=142	=142	=142	=142	=142	=142
4E-\	me-	4e-\	me-	4g\	me-	4dd-\	me-
8E-\	-as	8d-\	-as	8g\	-as	8b-\	-as
8E-\	sub-	8d-\	sub-	8g\	sub-	8b-\	sub-
!	!	!LO:LB:g=original	!	!	!	!LO:LB:g=original	!
=143	=143	=143	=143	=143	=143	=143	=143
4A-\	-ver-	4c\	-ver-	2e-\	-ver-	4a-\	-ver-
4E-\	.	4B-\	.	.	.	4g\	.
=144	=144	=144	=144	=144	=144	=144	=144
4AA-/	.	4c\	.	2e-\	.	4a-\	.
4E-\	.	4d-\	.	.	.	4b-\	.
!	!	!	!	!LO:LB:g=original	!	!	!
=145	=145	=145	=145	=145	=145	=145	=145
2E-\	tit	2d-\	-tit	2e-\	-tit	2b-\	-tit
=146	=146	=146	=146	=146	=146	=146	=146
2AA-;/	,	2c;\	,	2e-;\	,	2a-;\	,
=147||	=147||	=147||	=147||	=147||	=147||	=147||	=147||
4A-\	Je-	4c\	Je-	4a-\	Je-	4a-\	Je-
(4E-\	-ru-	[4e-\	-ru-	(4g\	-ru-	(4b-\	-ru-
!LO:LB:g=original	!	!	!	!	!	!	!
=148	=148	=148	=148	=148	=148	=148	=148
8AA-/)	.	8e-\]	.	8a-\)	.	8cc\)	.
8A-\	-sa-	8e-\	-sa-	8a-\	-sa-	8cc\	-sa-
4A-\	-lem,	4e-\	-lem,	4a-\	-lem,	4cc\	-lem,
!	!	!	!	!	!	!LO:PB:g=original	!
=149	=149	=149	=149	=149	=149	=149	=149
4r	.	4r	.	4r	.	4r	.
4A-\	Je-	4e-\	Je-	4a-\	Je-	4cc\	Je-
!	!	!LO:LB:g=original	!	!	!	!	!
=150	=150	=150	=150	=150	=150	=150	=150
4B-\	-ru-	[2e-\	-ru-	4g\	-ru-	4dd-\	-ru-
(4A-\	.	.	.	(4a-\	.	4cc\	.
!	!	!	!	!LO:LB:g=original	!	!	!
=151	=151	=151	=151	=151	=151	=151	=151
8E-\)	.	8e-\]	.	8g\)	.	8b-\	.
8E-\	-sa-	8e-\	-sa-	8g\	-sa-	8b-\	-sa-
(4E-\	-lem	[4e-\	-lem	(4g\	-lem	(4b-\	-lem
=152	=152	=152	=152	=152	=152	=152	=152
4A-\)	,	4e-\]	,	4a-\)	,	4cc\)	,
4r	.	4r	.	4r	.	4r	.
=153	=153	=153	=153	=153	=153	=153	=153
4A-\	con-	4c\	con-	4a-\	con-	4a-\	con-
(4E-\	-ver-	[4e-\	-ver-	(4g\	-ver-	(4b-\	-ver-
!LO:LB:g=original	!	!	!	!	!	!	!
=154	=154	=154	=154	=154	=154	=154	=154
8AA-/)	.	8e-\]	.	8a-\)	.	8cc\)	.
8A-\	-te-	8e-\	-te-	8a-\	-te-	8cc\	-te-
4A-\	-re	4e-\	-re	4a-\	-re	4cc\	-re
!	!	!	!	!	!	!LO:LB:g=original	!
=155	=155	=155	=155	=155	=155	=155	=155
8r	.	8r	.	8r	.	8r	.
8A-\	ad	8e-\	ad	8a-\	ad	8cc\	ad
8A-\	Do-	8e-\	Do-	8a-\	Do-	8cc\	Do-
16A-\	-mi-	16e-\	-mi-	16a-\	-mi-	16cc\	-mi-
16A-\	-num	16e-\	-num	16a-\	-num	16cc\	-num
!	!	!LO:LB:g=original	!	!LO:LB:g=original	!	!	!
=156	=156	=156	=156	=156	=156	=156	=156
4E-\	De-	4e-\	De-	4g\	De-	4dd-\	De-
4E-\	-um	4d-\	-um	4g\	-um	4b-\	-um
=157	=157	=157	=157	=157	=157	=157	=157
4A-\	tu-	4c\	tu-	2e-\	tu-	4a-\	tu-
4E-\	.	4B-\	.	.	.	4g\	.
=158	=158	=158	=158	=158	=158	=158	=158
4AA-/	.	4c\	.	2e-\	.	4a-\	.
4E-\	.	4d-\	.	.	.	4b-\	.
=159	=159	=159	=159	=159	=159	=159	=159
2E-\	-um	2d-\	-um	2e-\	-um	2b-\	-um
=160	=160	=160	=160	=160	=160	=160	=160
2AA-;/	-.	2c;\	-.	2e-;\	-.	2a-;\	-.
==	==	==	==	==	==	==	==
*-	*-	*-	*-	*-	*-	*-	*-
!!!system-decoration: [(s1,s2,s3,s4)]
!!!RDF**kern: > = above
!!!RDF**kern: < = below
!!!RDF**kern: i = editorial accidental
!!!ENC: Filip Voros
!!!EED: Katarzyna Serwa
!!!END: 2023-11-16
!!!EEV: 2024-06-04
